X:1
T:In the Cross of Christ I Glory
T:Text: John Bowring, 1825 Tune: Ithamar Conkey, 1851
T:87 87 RATHBUN www.hymnary.org/text/in_the_cross_of_christ_i_glory_towering
T:In the Cross of Christ I Glory
T:This hymn is in the public domain. You may freely use this score for personal and congregational worship. If you reproduce the score, please credit Hymnary.org as the source. 
T:This hymn is in the public domain. You may freely use this score for personal and congregational worship. If you reproduce the score, please credit Hymnary.org as the source. 
Z:This hymn is in the public domain. You may freely use this score for personal and congregational worship. If you reproduce the score, please credit Hymnary.org as the source.
%%score ( 1 2 ) ( 3 4 )
L:1/8
M:3/4
K:C
V:1 treble nm="SOPRANO ALTO" snm="S. A."
V:2 treble 
V:3 bass nm="TENOR BASS" snm="T. B."
V:4 bass 
V:1
"^C""^1""^2""^3""^4" G4 c2 | e4 c2 |"^G7" (B2 A2) G2 |"^C" c2 G2 z2 | G4"^F" A2 |"^C" E4"^G" D2 | %6
w: In the|cross of|Christ * I|glo- ry,|tow- ering|o'er the|
w: When the|woes of|life * o'er-|take me,|hopes de-|ceive and|
w: When the|sun of|bliss * is|beam- ing|light and|love up-|
w: Bane and|bless- ing,|pain * and|plea- sure,|by the|cross are|
"^C""^Am" E4"^D7" ^F2 |"^G" G4 z2 |"^C" G4 c2 | e4 c2 |"^G7" (d2 c)B AG |1"^C" c2 G2 z2 | %12
w: wrecks of|time;|all the|light of|sa- * * cred _|sto- ry|
w: fears an-|noy,|nev- er|shall the|cross * * for- *|sake me;|
w: on my|way,|from the|cross the|ra- * * diance, _|stream- ing,|
w: sanc- ti-|fied;|peace is|there that|knows * * no *|mea- sure,|
 G4"^F" A2 |"^C" G4 c2 | E4"^G7" D2 |"^C" C4 z2 |] %16
w: gath- ers|round its|head sub-|lime.|
w: lo! it|glows with|peace and|joy.|
w: adds more|lus- ter|to the|day.|
w: joys that|through all|time a-|bide.|
V:2
 E4 E2 | G4 G2 | F4 F2 | E2 E2 x2 | C4 C2 | C4 B,2 | (C2 E2) D2 | D4 x2 | E4 E2 | G4 G2 | F4 F2 |1 %11
 E2 E2 x2 | E4 F2 | E4 E2 | C4 B,2 | C4 x2 |] %16
V:3
 G,4 G,2 | C4 C2 | (D2 C2) B,2 | G,2 C2 z2 | C4 A,2 | G,4 G,2 | (G,2 C2) C2 | B,4 z2 | C4 G,2 | %9
 (G,2 C2) C2 | (B,2 D2) B,2 |1 G,2 C2 z2 | C4 C2 | C4 G,2 | G,4 F,2 | E,4 z2 |] %16
V:4
 C,4 C,2 | C,4 G,2 | G,4 G,2 | C,2 C,2 x2 | E,4 F,2 | G,4 G,,2 | (C,2 A,,2) D,2 | G,,4 x2 | %8
 C,4 C,2 | C,4 E,2 | G,4 G,2 |1 C,2 C,2 x2 | C,4 C,2 | C,4 C,E, | G,4 G,,2 | C,4 x2 |] %16

